X: 19247
T: Italian Rant
R: reel
M: 4/4
K: Dminor
DEFG A2AA|B2BB A2AA|G2GG F2GF|E2E2 D4:|
|:d2dd c2cc|B2BB A4|FGAF B2A2|G3A F4|FGAB G2E2|
EFGA F2D2|DEFG A2AA|B2BBA2AA|G2GG F2GF|EDE2 D4:|

